X: 476
T: Ba cong
L: 1/8
M: 2/4
K: F
d f d c [I:setbarnb 1]| 
G4 | 
d f d A | 
c2A G | 
F3D | 
c2d A | 
c A G D | 
F4 | 
F G A A | 
f dc2 | 
d A c c | 
d A G F | 
F DC2 | 
c2c F | 
G A G D | 
C4 | 
d A c c | 
d A G F | 
F DC2 | 
c2c F | 
G A G D | 
C4 |]

@@@ Tune index: 9350
